X:1
T:かわはよんでいる
T:かわはよんでいる
C:Composer
L:1/8
M:3/4
K:C
V:1 treble nm="Piano" snm="Pno."
V:1
"C""^A" e4 c2 | e4 c2 | e4 c2 |"G7" d6 | d2 e2 f2 | d4 e2 |"C" c6 |"G7" d6 |"C" e4 c2 | e4 c2 | %10
 e4 c2 |"G7" d6 |"G7" d2 e2 f2 | d4 e2 |"C" c6- | c4 z2 |"C""^B" g2 e2 g2 |"F" a6 |"C" g2 e2 g2 | %19
"G" f6 |"G" f2 d2 f2 |"C" e2 c2 e2 |"G" d6- | d4 z2 |"C" c4 c2 |"G" d4 d2 |"C" e4 e2 |"F" f6 | %28
"C" e2 d2 c2 |"G7" d2 c2 B2 |"C" c6- | c4 z2 |] %32

